source/img/htmlacademy.svg

<?xml version="1.0" encoding="UTF-8" standalone="no"?>
<svg
   xmlns:dc="http://purl.org/dc/elements/1.1/"
   xmlns:cc="http://creativecommons.org/ns#"
   xmlns:rdf="http://www.w3.org/1999/02/22-rdf-syntax-ns#"
   xmlns:svg="http://www.w3.org/2000/svg"
   xmlns="http://www.w3.org/2000/svg"
   xmlns:sodipodi="http://sodipodi.sourceforge.net/DTD/sodipodi-0.dtd"
   xmlns:inkscape="http://www.inkscape.org/namespaces/inkscape"
   viewBox="0 0 27 34"
   version="1.1"
   id="svg37"
   sodipodi:docname="htmlacademy.svg"
   width="27"
   height="34"
   inkscape:version="0.92.4 (5da689c313, 2019-01-14)">
  <metadata
     id="metadata43">
    <rdf:RDF>
      <cc:Work
         rdf:about="">
        <dc:format>image/svg+xml</dc:format>
        <dc:type
           rdf:resource="http://purl.org/dc/dcmitype/StillImage" />
        <dc:title></dc:title>
      </cc:Work>
    </rdf:RDF>
  </metadata>
  <defs
     id="defs41" />
  <sodipodi:namedview
     pagecolor="#ffffff"
     bordercolor="#666666"
     borderopacity="1"
     objecttolerance="10"
     gridtolerance="10"
     guidetolerance="10"
     inkscape:pageopacity="0"
     inkscape:pageshadow="2"
     inkscape:window-width="1920"
     inkscape:window-height="1028"
     id="namedview39"
     showgrid="false"
     fit-margin-top="0"
     fit-margin-left="0"
     fit-margin-right="0"
     fit-margin-bottom="0"
     inkscape:zoom="3.9333333"
     inkscape:cx="34.445763"
     inkscape:cy="37.457627"
     inkscape:window-x="1912"
     inkscape:window-y="-8"
     inkscape:window-maximized="1"
     inkscape:current-layer="svg37" />
  <path
     d="M 13.637055,0 H 13.5 L 0,1.428 V 26.044 L 13.5,34 27,26.044 V 1.428 Z M 25.286802,25.024 13.5,31.96 1.713198,25.024 V 14.96 l 11.718274,6.936 V 23.12 L 5.4137056,18.36 v 1.224 L 13.5,24.412 v 1.292 l -8.0862944,-4.76 v 1.224 L 13.5,26.928 21.654823,22.1 v -5.168 l 3.631979,-2.176 z m -0.06853,-11.56 -3.220812,1.904 -1.507614,0.884 -7.058376,-4.148 v 1.224 l 6.030457,3.604 h -0.06853 L 19.25634,17 18.365478,17.476 13.36294,14.552 v 1.224 l 3.974619,2.312 -0.959391,0.612 -2.946701,-1.768 v 1.224 l 1.987309,1.156 -1.987309,1.156 L 1.7817209,13.6 13.431472,6.664 Z M 25.286802,12.24 13.431472,5.304 1.713198,12.24 V 2.992 L 13.5,1.768 25.286802,2.992 Z"
     id="path35"
     inkscape:connector-curvature="0"
     style="fill:#2e368f;stroke-width:0.68263447" />
</svg>

<svg xmlns="http://www.w3.org/2000/svg" width="27" height="34"><path d="M13.637 0H13.5L0 1.428v24.616L13.5 34 27 26.044V1.428zm11.65 25.024L13.5 31.96 1.713 25.024V14.96l11.718 6.936v1.224l-8.017-4.76v1.224l8.086 4.828v1.292l-8.086-4.76v1.224l8.086 4.76 8.155-4.828v-5.168l3.632-2.176zm-.069-11.56l-3.22 1.904-1.508.884-7.059-4.148v1.224l6.03 3.604h-.068l-.137.068-.89.476-5.003-2.924v1.224l3.975 2.312-.96.612-2.947-1.768v1.224l1.988 1.156-1.988 1.156L1.781 13.6l11.65-6.936zm.069-1.224L13.43 5.304 1.713 12.24V2.992L13.5 1.768l11.787 1.224z" fill="#2e368f"/></svg>
